X:1
T:Stille Nacht, Heilige Nacht
T:Stille Nacht, Heilige Nacht
T:Franz Gruber Arr. Leonhard Ritthaler
C:Franz Gruber Arr. Leonhard Ritthaler
%%score 1 2 3 4
L:1/8
Q:3/8=25
M:6/8
K:C
V:1 treble transpose=-2 nm="Trompete in B" snm="B Tpt."
V:2 treble transpose=-2 nm="Trompete in B" snm="B Tpt."
V:3 treble transpose=-7 nm="Horn in F" snm="F Hn."
V:4 bass nm="Posaune" snm="Psn."
V:1
[K:C]"^\n" A>BA ^F3 | A>BA ^F3 | e2 e ^c3 | d2 d A3 | B2 B d>^cB | A>BA ^F3 | B2 B d>^cB | %7
 A>BA ^F3 | e2 e g>e^c | d3 !fermata!^f3 | d>A^F A>GE | D3- D3 |] %12
V:2
[K:C] D>DD A,3 | D>DD A,3 | G3 E>^FE | D3 D>ED | D2 G B>AG | ^F2 F D3 | D2 G B>AG | ^F2 F D3 | %8
 ^C2 C A,>B,C | D3 !fermata!C3 | D2 D ^C2 C | A,3- A,3 |] %12
V:3
[K:C] B,2 B, B,>A,B, | B,2 B, B,>A,B, | D2 C C>DC | B,2 B, B,>DG | c>GG G2 C | D2 G d3 | %6
 c>GG G2 C | D2 G D3 | D3 D>CD | B,3 D>D!fermata!F | D>DG A>^FD | B,3- B,3 |] %12
V:4
 C,3 C,>D,C, | C,3 C,>D,C, | G,>B,F, B,,>C,D, | G,>E,C, C,>D,G, | F,3 F,>G,F, | C,2 C, C,>D,C, | %6
 F,3 F,>G,F, | C,2 C, C,>D,C, | B,,3 G,>F,B,, | C,3 !fermata!C,3 | E,>G,E, G,>F,F, | C,3- C,3 |] %12

